svg/blobs-icons/no-decorations/game-controller.svg

<svg xmlns="http://www.w3.org/2000/svg" xmlns:xlink="http://www.w3.org/1999/xlink" preserveAspectRatio="xMidYMid" width="216" height="137" viewBox="0 0 216 137"><defs><style>.cls-3{fill:#142a3b}.cls-4{fill:#060606;opacity:.35}.cls-6{fill:#ff3a2f}.cls-7{fill:#ededed}.cls-11{fill:#0cb04a}</style></defs><g id="group-39svg"><path d="M167.789 42.936s-60.759.0-60.759.0C107.6 35.696 109.525 32.874 111.717 29.751 114.942 25.156 118.599 19.955 118.599 4.712c0-2.601-2.104-4.706-4.705-4.706C111.294.006 109.189 2.111 109.189 4.712 109.189 16.977 106.791 20.386 104.016 24.348 101.305 28.198 98.282 32.517 97.579 42.936H48.041C21.553 42.936.0 64.264.0 90.479c0 25.913 21.103 46.201 48.041 46.201 16.301.0 28.914-10.897 35.713-18.468h47.747C137.377 124.68 150.21 136.139 167.352 136.139c27.021.0 48.188-20.446 48.188-46.551.0-26.161-20.974-46.652-47.751-46.652z" id="path-1" class="cls-3" fill-rule="evenodd"/><path d="M197.833 53.1C204.021 60.96 207.702 70.848 207.702 81.751c0 26.104-21.167 46.551-48.188 46.551-17.142.0-29.975-11.46-35.852-17.928H75.916C69.117 117.945 56.504 128.842 40.203 128.842 28.538 128.842 17.976 125.027 9.739 118.609c8.702 11.034 22.474 18.071 38.302 18.071 16.301.0 28.914-10.897 35.713-18.469h47.747C137.377 124.68 150.21 136.14 167.352 136.14c27.021.0 48.188-20.448 48.188-46.551C215.54 74.651 208.685 61.581 197.833 53.1z" id="path-2" class="cls-4" fill-rule="evenodd"/><path d="M63.708 93.902s-9.41.0-9.41.0S54.298 103.311 54.298 103.311c0 2.601-2.104 4.705-4.705 4.705C46.993 108.016 44.888 105.912 44.888 103.311V93.902s-9.409.0-9.409.0C32.878 93.902 30.774 91.798 30.774 89.198 30.774 86.596 32.878 84.492 35.479 84.492h9.409S44.888 75.083 44.888 75.083C44.888 72.483 46.993 70.378 49.593 70.378c2.601.0 4.705 2.105 4.705 4.705V84.492s9.41.0 9.41.0C66.308 84.492 68.413 86.596 68.413 89.198 68.413 91.798 66.308 93.902 63.708 93.902z" id="path-3" class="cls-4" fill-rule="evenodd"/><path d="M59.789 89.983s-9.41.0-9.41.0.0 9.41.0 9.41C50.379 101.993 48.275 104.097 45.674 104.097 43.075 104.097 40.969 101.993 40.969 99.393v-9.41s-9.409.0-9.409.0c-2.6.0-4.705-2.104-4.705-4.705C26.855 82.678 28.96 80.574 31.56 80.574h9.409s0-9.41.0-9.41C40.969 68.564 43.075 66.46 45.674 66.46 48.275 66.46 50.379 68.564 50.379 71.164v9.41s9.41.0 9.41.0C62.39 80.574 64.494 82.678 64.494 85.278c0 2.601-2.104 4.705-4.705 4.705z" id="path-4" class="cls-6" fill-rule="evenodd"/><path d="M97.427 89.983S88.017 89.983 88.017 89.983C85.418 89.983 83.313 87.879 83.313 85.278 83.313 82.678 85.418 80.574 88.017 80.574H97.427c2.601.0 4.705 2.104 4.705 4.70400000000001.0 2.601-2.104 4.705-4.705 4.705z" id="path-5" class="cls-7" fill-rule="evenodd"/><path d="M125.656 89.983S116.247 89.983 116.247 89.983c-2.601.0-4.705-2.104-4.705-4.705C111.542 82.678 113.646 80.574 116.247 80.574H125.656C128.257 80.574 130.361 82.678 130.361 85.278 130.361 87.879 128.257 89.983 125.656 89.983z" id="path-6" class="cls-7" fill-rule="evenodd"/><circle id="circle-1" class="cls-4" cx="158" cy="103" r="10"/><circle id="circle-2" class="cls-4" cx="186" cy="75" r="10"/><circle id="circle-3" class="cls-11" cx="154" cy="99" r="10"/><path d="M182.114 80.574c-5.196.0-9.41-4.209-9.41-9.41.0-5.191 4.214-9.409 9.41-9.409 5.197.0 9.41 4.218 9.41 9.409C191.524 76.365 187.311 80.574 182.114 80.574z" id="path-7" class="cls-11" fill-rule="evenodd"/></g></svg>

<svg xmlns="http://www.w3.org/2000/svg" xmlns:xlink="http://www.w3.org/1999/xlink" preserveAspectRatio="xMidYMid" width="216" height="137" viewBox="0 0 216 137">
  <defs>
    <style>

      .cls-3 {
        fill: #142a3b;
      }

      .cls-4 {
        fill: #060606;
        opacity: 0.35;
      }

      .cls-6 {
        fill: #ff3a2f;
      }

      .cls-7 {
        fill: #ededed;
      }

      .cls-11 {
        fill: #0cb04a;
      }
    </style>
  </defs>
  <g id="group-39svg">
    <path d="M167.789,42.936 C167.789,42.936 107.030,42.936 107.030,42.936 C107.600,35.696 109.525,32.874 111.717,29.751 C114.942,25.156 118.599,19.955 118.599,4.712 C118.599,2.111 116.495,0.006 113.894,0.006 C111.294,0.006 109.189,2.111 109.189,4.712 C109.189,16.977 106.791,20.386 104.016,24.348 C101.305,28.198 98.282,32.517 97.579,42.936 C97.579,42.936 48.041,42.936 48.041,42.936 C21.553,42.936 -0.000,64.264 -0.000,90.479 C-0.000,116.392 21.103,136.680 48.041,136.680 C64.342,136.680 76.955,125.783 83.754,118.212 C83.754,118.212 131.501,118.212 131.501,118.212 C137.377,124.680 150.210,136.139 167.352,136.139 C194.373,136.139 215.540,115.693 215.540,89.588 C215.540,63.427 194.566,42.936 167.789,42.936 Z" id="path-1" class="cls-3" fill-rule="evenodd"/>
    <path d="M197.833,53.100 C204.021,60.960 207.702,70.848 207.702,81.751 C207.702,107.855 186.535,128.302 159.514,128.302 C142.372,128.302 129.539,116.842 123.662,110.374 C123.662,110.374 75.916,110.374 75.916,110.374 C69.117,117.945 56.504,128.842 40.203,128.842 C28.538,128.842 17.976,125.027 9.739,118.609 C18.441,129.643 32.213,136.680 48.041,136.680 C64.342,136.680 76.955,125.783 83.754,118.211 C83.754,118.211 131.501,118.211 131.501,118.211 C137.377,124.680 150.210,136.140 167.352,136.140 C194.373,136.140 215.540,115.692 215.540,89.589 C215.540,74.651 208.685,61.581 197.833,53.100 Z" id="path-2" class="cls-4" fill-rule="evenodd"/>
    <path d="M63.708,93.902 C63.708,93.902 54.298,93.902 54.298,93.902 C54.298,93.902 54.298,103.311 54.298,103.311 C54.298,105.912 52.194,108.016 49.593,108.016 C46.993,108.016 44.888,105.912 44.888,103.311 C44.888,103.311 44.888,93.902 44.888,93.902 C44.888,93.902 35.479,93.902 35.479,93.902 C32.878,93.902 30.774,91.798 30.774,89.198 C30.774,86.596 32.878,84.492 35.479,84.492 C35.479,84.492 44.888,84.492 44.888,84.492 C44.888,84.492 44.888,75.083 44.888,75.083 C44.888,72.483 46.993,70.378 49.593,70.378 C52.194,70.378 54.298,72.483 54.298,75.083 C54.298,75.083 54.298,84.492 54.298,84.492 C54.298,84.492 63.708,84.492 63.708,84.492 C66.308,84.492 68.413,86.596 68.413,89.198 C68.413,91.798 66.308,93.902 63.708,93.902 Z" id="path-3" class="cls-4" fill-rule="evenodd"/>
    <path d="M59.789,89.983 C59.789,89.983 50.379,89.983 50.379,89.983 C50.379,89.983 50.379,99.393 50.379,99.393 C50.379,101.993 48.275,104.097 45.674,104.097 C43.075,104.097 40.969,101.993 40.969,99.393 C40.969,99.393 40.969,89.983 40.969,89.983 C40.969,89.983 31.560,89.983 31.560,89.983 C28.960,89.983 26.855,87.879 26.855,85.278 C26.855,82.678 28.960,80.574 31.560,80.574 C31.560,80.574 40.969,80.574 40.969,80.574 C40.969,80.574 40.969,71.164 40.969,71.164 C40.969,68.564 43.075,66.460 45.674,66.460 C48.275,66.460 50.379,68.564 50.379,71.164 C50.379,71.164 50.379,80.574 50.379,80.574 C50.379,80.574 59.789,80.574 59.789,80.574 C62.390,80.574 64.494,82.678 64.494,85.278 C64.494,87.879 62.390,89.983 59.789,89.983 Z" id="path-4" class="cls-6" fill-rule="evenodd"/>
    <path d="M97.427,89.983 C97.427,89.983 88.017,89.983 88.017,89.983 C85.418,89.983 83.313,87.879 83.313,85.278 C83.313,82.678 85.418,80.574 88.017,80.574 C88.017,80.574 97.427,80.574 97.427,80.574 C100.028,80.574 102.132,82.678 102.132,85.278 C102.132,87.879 100.028,89.983 97.427,89.983 Z" id="path-5" class="cls-7" fill-rule="evenodd"/>
    <path d="M125.656,89.983 C125.656,89.983 116.247,89.983 116.247,89.983 C113.646,89.983 111.542,87.879 111.542,85.278 C111.542,82.678 113.646,80.574 116.247,80.574 C116.247,80.574 125.656,80.574 125.656,80.574 C128.257,80.574 130.361,82.678 130.361,85.278 C130.361,87.879 128.257,89.983 125.656,89.983 Z" id="path-6" class="cls-7" fill-rule="evenodd"/>
    <circle id="circle-1" class="cls-4" cx="158" cy="103" r="10"/>
    <circle id="circle-2" class="cls-4" cx="186" cy="75" r="10"/>
    <circle id="circle-3" class="cls-11" cx="154" cy="99" r="10"/>
    <path d="M182.114,80.574 C176.918,80.574 172.704,76.365 172.704,71.164 C172.704,65.973 176.918,61.755 182.114,61.755 C187.311,61.755 191.524,65.973 191.524,71.164 C191.524,76.365 187.311,80.574 182.114,80.574 Z" id="path-7" class="cls-11" fill-rule="evenodd"/>
  </g>
</svg>
